X: 7
T: Martin Rochford's
R: reel
M: 4/4
L: 1/8
K: Gmaj
|:G3F GABd|dBBA Be e2|GEDE G2 ec|dBAc BEED|
G3F GABd|dBBA Be e2|GEDE G2 ec|dBAc BE E2||
|:g2 eg fedA|Be e2 Beef|g2 bg agfe|dBAc BE E2|
g2 eg fedA|Beed e3f|gb b2 fa a2|dBAc BE E2||


Tune 1062	Setting 24978

